X:1
T:Title
%%score { 1 | 2 }
L:1/8
M:4/4
K:A
V:1 treble nm="Grand Piano"
V:2 treble 
V:1
 z4 z2[Q:1/4=100] EE | A2 A2 A2 cd | e4 c2 [Fd][Fd] | c2 B2 AAGA |[M:3/4] B6 |[M:1/4] EE | %6
[M:4/4] A2 A2 A2 cd | e4 c2 [Fd][Fd] | c2 B2 AAGG |[M:3/4] [CA]6 |[M:1/4] AA |[M:4/4] G2 B2 B2 dd | %12
 c2 B2 A2 AA | G2 B2 B2 dd |[M:3/4] c2 B2 A2 |[M:1/4] EE |[M:4/4] A2 A2 A2 cd | e4 c2 [Fd][Fd] | %18
 c2 B2 AAGG |[M:7/4] [CA]6 z2 z2 z4 |] %20
V:2
 z4 z2 [A,C][A,C] | [A,C]2 [A,C]2 [A,C]2 [A,A][A,B,A] | [A,CA]4[K:bass] [A,E]2 [D,A,][D,B,] | %3
 [E,A,E]2 [E,G,D]2 [E,A,C][E,A,C][E,B,D][E,A,C] |[M:3/4] [E,G,E]6 |[M:1/4][K:treble] [A,C][A,C] | %6
[M:4/4] [A,C]2 [A,C]2 [A,C]2 [A,A][A,B,A] | [A,CA]4[K:bass] [A,E]2 [D,A,][D,A,] | %8
 [E,A,E]2 [E,G,D]2 [E,A,C][E,C][E,B,][E,B,] |[M:3/4] [A,,E,]6 |[M:1/4] [A,CE][A,CE] | %11
[M:4/4] [E,B,E]2 [E,DE]2 [E,DE]2 [E,B,E][E,B,E] | [A,E]2 [A,D]2 [A,C]2 [A,CE][A,CE] | %13
 [E,B,E]2 [E,DE]2 [E,DE]2 [E,B,E][E,B,E] |[M:3/4][K:treble] [A,E]2 [A,D]2 [A,C]2 | %15
[M:1/4] [A,C][A,C] |[M:4/4] [A,C]2 [A,C]2 [A,C]2 [A,A][A,B,A] | %17
 [A,CA]4[K:bass] [A,E]2 [D,A,][D,A,] | [E,A,E]2 [E,G,D]2 [E,A,C][E,C][E,B,][E,B,] | %19
[M:7/4] [A,,E,]6 z2 z2 z4 |] %20

